X:1
T:Title
%%score { ( 1 3 ) | 2 }
L:1/8
Q:1/4=78
M:6/8
K:G
V:1 treble nm="Grand Piano"
V:3 treble 
V:2 bass 
V:1
 [EG]>[EG][EG] [Ec]2 [CE] | [B,D][CE][D=F] E3 | A>AA [EG]2 [Ec] | [DB][Ec][CA] [B,G]3 | d>dd dAB | %5
w: J.~Lincoln~Hall * * * *|||||
 [Ed][Ec][^DA] [EG]3 | A>AA [EG][Ec][G,CE] | [G,G]-[G,CG][G,D=F] [G,CE]3 | %8
w: |||
 [EG]>[EG][EG] [EG] [Ec]2 | A>AA A c2 | d>dd ded | [Ec][^DB][DA] [EG]3 | [EG]>[EG][EG] [EG] [Ec]2 | %13
w: |||||
[M:13/16] A>AA[FA][Fd]3/2[Fc] |[M:3/4] BB cd ed | [Ec]6 |] %16
w: |||
V:2
 [C,C]>[C,C][C,C] [C,G,]2 [C,G,] | [G,,G,][G,,G,][G,,G,] [C,G,C]3 | %2
 [=F,C]>[F,C=F][F,CF] [C,C]2 [C,G,] | [D,G,][D,G,][D,F,] [G,,G,]3 | %4
 [G,B,=F]>[G,B,F][G,B,F] [G,B,F][G,B,F][G,B,F] | [C,G,][C,G,][C,F,] [C,G,]3 | %6
 [=F,=F]>[F,CF][F,CF] [C,C][C,G,]C, | G,,A,,B,, C,3 | [C,C]>[C,C][C,C] [C,C] [C,G,]2 | %9
 [=F,=F]>[F,CF][F,CF] [F,CF] [A,CF]2 | [G,B,=F]>[G,B,F][G,B,F] [G,B,F][G,B,G][G,B,F] | %11
 [C,G,][C,F,][C,F,] [C,G,]3 | [C,C]>[C,C][C,C] [C,C] [C,G,]2 | %13
[M:13/16] [=F,=F]>[F,CF][F,CF][D,D][D,A,]3/2[D,D] | %14
[M:3/4][K:treble] [G,D=F][G,DF] [G,CE][G,B,F] [G,B,G][G,B,F] | [C,C]6 |] %16
V:3
 x6 | x6 | x6 | x6 | x6 | x6 | x6 | .B,3 z3 | x6 | x6 | x6 | x6 | x6 |[M:13/16] x13/2 |[M:3/4] x6 | %15
 x6 |] %16

